X: 165
T: No_88_War_Song.krn
%%abc-version 2.0
%%abcx-abcm2ps-target-version 5.9.1 (29 Sep 2008)
%%abc-creator hum2abc beta
%%abcx-conversion-date 2020/08/10 18:54:56
%%gracespace 0 6 6
%%humdrum-veritas 3399002994
%%humdrum-veritas-data 2957113494
%%linebreak <none>
%%barnumbers 0
L: 1/8
M: 2/4
%%staves {1 2}
V: 1 clef=bass
V: 2 clef=bass
K: Ab
[V:1] [K:clef=bass][M:2/4]E2EE | 
[V:2] [K:clef=bass][M:2/4](3!accent!G,, z G,, (3!accent!G,, z G,, | 
[V:1] (3FEEE2 | 
[V:2] (3!accent!G,, z G,, (3!accent!G,, z G,, | 
[V:1] E2EE | 
[V:2] z4 | 
[V:1] (3ECB,A,2- | 
[V:2] z4 | 
[V:1] A,E EE | 
[V:2] z4 | 
[V:1] F>EE2 | 
[V:2] z4 | 
[V:1] E2EE | 
[V:2] z4 | 
[V:1] (3ECB,A,2 | 
[V:2] z4 | 
[V:1] B,2B,B, [I:setbarnb 10]| 
[V:2] z4 | 
[V:1] (3B,A,A,A,2 | 
[V:2] z4 | 
[V:1] B,2B,B, ||  
[V:2] z4 ||  
[V:1] [M:3/4]A,>E,E,2D,/D,3/- ||  
[V:2] [M:3/4]z6 ||  
[V:1] [M:2/4]D,E, E,E, | 
[V:2] [M:2/4]z4 | 
[V:1] (3F,E,E,D,2- | 
[V:2] z4 | 
[V:1] D,E, E,E, | 
[V:2] z4 | 
[V:1] (3F,E,E,E,2 | 
[V:2] z4 | 
[V:1] E,3E, ||  
[V:2] z4 ||  
[V:1] [M:3/4]E,6 :|]  
[V:2] [M:3/4]z6 :|]  


